src/assets/Vector 2 (Stroke).svg

<svg width="1735" height="605" viewBox="0 0 1735 605" fill="none" xmlns="http://www.w3.org/2000/svg">
<path opacity="0.8" d="M0 563V340.859C6.16154e-07 318.119 21.7142 299.685 48.5 299.685H1686.5C1710.52 299.685 1730 283.15 1730 262.755V41.1748C1730 20.7789 1710.52 4.24482 1686.5 4.24482H1648.13V0H1686.5C1713.29 0 1735 18.4346 1735 41.1748V262.755C1735 285.495 1713.29 303.929 1686.5 303.929H48.5C24.4756 303.929 5 320.463 5 340.859V563C5 583.396 24.4756 599.93 48.5 599.93H76.749V604.175H48.5C21.7142 604.175 2.4804e-06 585.74 0 563Z" fill="url(#paint0_linear_297_492)"/>
<defs>
<linearGradient id="paint0_linear_297_492" x1="39.6245" y1="2.12241" x2="39.6245" y2="604" gradientUnits="userSpaceOnUse">
<stop stop-color="#01002B"/>
<stop offset="0.0314417" stop-color="#325FEC"/>
<stop offset="0.959393" stop-color="#325FEC"/>
<stop offset="1" stop-color="#01002B"/>
</linearGradient>
</defs>
</svg>

<svg xmlns="http://www.w3.org/2000/svg" width="1735" height="605" fill="none"><path fill="url(#a)" d="M0 563V340.859c0-22.74 21.714-41.174 48.5-41.174h1638c24.02 0 43.5-16.535 43.5-36.93V41.175c0-20.396-19.48-36.93-43.5-36.93h-38.37V0h38.37c26.79 0 48.5 18.435 48.5 41.175v221.58c0 22.74-21.71 41.174-48.5 41.174H48.5c-24.024 0-43.5 16.534-43.5 36.93V563c0 20.396 19.476 36.93 43.5 36.93h28.249v4.245H48.5C21.714 604.175 0 585.74 0 563" opacity=".8"/><defs><linearGradient id="a" x1="39.624" x2="39.624" y1="2.122" y2="604" gradientUnits="userSpaceOnUse"><stop stop-color="#01002B"/><stop offset=".031" stop-color="#325FEC"/><stop offset=".959" stop-color="#325FEC"/><stop offset="1" stop-color="#01002B"/></linearGradient></defs></svg>
